X:1
T:Title
%%score { 1 | 2 }
L:1/8
M:9/8
K:Bb
V:1 treble nm="Grand Piano"
V:2 bass 
V:1
 z3 z2[Q:1/4=100] [B,D] [DF][DF][DF] | [DF]3- [DF]2 [DF] [DF][DG]D | F3 E2 E GG[EG] | %3
 G3- G2 G GFE | D3- D2 [DF] [DB][DB][DB] | [DB]3- [DB]2 [DB] [DB][Dc][B,DG] | %6
 [DFB]3 [FA]2 [FA] [Fc][Fc][Fc] | [Fc]3- [Fc]2 [FA] [=EA][EA][EG] |[M:5/8] F-F- F3 | %9
[M:2/4] F[Fd] [Fd][Fd] |[M:9/8] [Fd]3- [Fd]2 [DB] [EB]AA | A3- A2 F eee | e3- e2 c cBB | %13
 B3- B2 B ddd | d3- d2 [_Af] [Gf][Ge][Ge] | [Ge]3- [Ge]2 [Ge] ddd | %16
 d3- d2 B BBA[Q:1/4=97][Q:1/4=94][Q:1/4=91][Q:1/4=88][Q:1/4=84][Q:1/4=81][Q:1/4=78] | %17
[M:5/8] [DB]-[DB]- [DB]3 |] %18
V:2
 z3 z2 [B,,F,] [B,,B,][B,,B,][B,,B,] | [B,,B,]3- [B,,B,]2 [B,,B,] [B,,B,][B,,B,][B,,F,B,] | %2
 [F,D]3 [F,A,C]2 [F,A,C] [F,A,E][F,A,E][B,,G,] | [F,A,E]3- [F,A,E]2 [F,A,E] [F,A,E][F,A,D][F,C] | %4
 [B,,F,B,]3- [B,,F,B,]2 [B,,B,] [B,,F,][B,,F,][B,,F,] | %5
 [B,,F,]3- [B,,F,]2 [B,,F,] [B,,F,][B,,F,]B,, | C,3 [C,C]2 [C,C] [C,A,][C,A,][C,A,] | %7
 [C,A,]3- [C,A,]2 [C,C] [C,C][C,C][C,B,] |[M:5/8] [F,A,]-[F,A,]- [F,A,]3 | %9
[M:2/4] [F,A,][B,,B,] [B,,B,][B,,B,] |[M:9/8] [B,,B,]3- [B,,B,]2 [B,,F,] [C,F,][F,E][F,E] | %11
 [F,E]3- [F,E]2 [F,A,E][K:treble] [F,CF][F,CF][F,CF] | [F,CF]3- [F,CF]2 [A,EF] [B,EF][B,DF][B,DF] | %13
 [B,DF]3- [B,DF]2 [B,DF] [B,F][B,F][B,F] | [B,F]3- [B,F]2[K:bass] [D,B,] [E,B,][E,B,][E,B,] | %15
 [E,B,]3- [E,B,]2 [E,B,] [F,B,F][F,B,F][F,B,F] | [F,B,F]3- [F,B,F]2 [F,DF] [F,CE][F,CE][F,CE] | %17
[M:5/8] [B,,B,]-[B,,B,]- [B,,B,]3 |] %18

